images/downloads-icon-2.svg

<svg width="60" height="60" viewBox="0 0 60 60" fill="none" xmlns="http://www.w3.org/2000/svg">
<path fill-rule="evenodd" clip-rule="evenodd" d="M10 7.5C8.67392 7.5 7.40215 8.02678 6.46447 8.96447C5.52678 9.90215 5 11.1739 5 12.5V47.5C5 48.8261 5.52678 50.0979 6.46447 51.0355C7.40215 51.9732 8.67392 52.5 10 52.5H50C51.3261 52.5 52.5979 51.9732 53.5355 51.0355C54.4732 50.0979 55 48.8261 55 47.5V12.5C55 11.1739 54.4732 9.90215 53.5355 8.96447C52.5979 8.02678 51.3261 7.5 50 7.5H10ZM21.5625 21.575C21.618 21.097 21.7844 20.6387 22.0485 20.2364C22.3126 19.8342 22.667 19.4993 23.0835 19.2584C23.5 19.0175 23.9671 18.8772 24.4474 18.8489C24.9277 18.8205 25.408 18.9048 25.85 19.095C27.11 19.635 29.77 20.85 33.14 22.795C35.5084 24.1486 37.7956 25.6395 39.99 27.26C40.3758 27.5471 40.6892 27.9204 40.9051 28.3501C41.1209 28.7798 41.2334 29.2541 41.2334 29.735C41.2334 30.2159 41.1209 30.6902 40.9051 31.1199C40.6892 31.5496 40.3758 31.9229 39.99 32.21C37.7955 33.8288 35.5083 35.318 33.14 36.67C30.7843 38.046 28.3501 39.2831 25.85 40.375C25.4081 40.5658 24.9276 40.6505 24.4471 40.6224C23.9666 40.5943 23.4993 40.4541 23.0827 40.2131C22.666 39.9721 22.3115 39.6369 22.0476 39.2344C21.7836 38.8319 21.6175 38.3732 21.5625 37.895C21.2625 35.1854 21.1156 32.4611 21.1225 29.735C21.1225 25.8575 21.4025 22.9375 21.5625 21.575Z" fill="#2EA844"/>
</svg>

<svg width="60" height="60" fill="none" xmlns="http://www.w3.org/2000/svg"><path fill-rule="evenodd" clip-rule="evenodd" d="M10 7.5a5 5 0 00-5 5v35a5 5 0 005 5h40a5 5 0 005-5v-35a5 5 0 00-5-5H10zm11.563 14.075a3.088 3.088 0 014.287-2.48c1.26.54 3.92 1.755 7.29 3.7a70.008 70.008 0 016.85 4.465 3.086 3.086 0 010 4.95 70.004 70.004 0 01-6.85 4.46 70.003 70.003 0 01-7.29 3.705 3.085 3.085 0 01-4.288-2.48c-.3-2.71-.446-5.434-.44-8.16 0-3.877.28-6.797.44-8.16z" fill="#2EA844"/></svg>
